src/actions/16/document-save-all.svg

<svg version="1.1" viewBox="0 0 16 16" xmlns="http://www.w3.org/2000/svg">
 <defs>
  <style id="current-color-scheme" type="text/css">.ColorScheme-Text {
        color:#363636;
      }</style>
 </defs>
 <path d="m4 1c-1.108 0-2 0.892-2 2h1c0-0.554 0.446-1 1-1h6.5859l3.4141 3.4141v6.5859c0 0.554-0.446 1-1 1 0 0.34745-0.05617 0.679-0.13867 1h0.13867c1.108 0 2-0.892 2-2v-7l-4-4h-6z" style="fill:currentColor" class="ColorScheme-Text"/>
 <path d="m2 3c-1.108 0-2 0.892-2 2v9c0 1.108 0.892 2 2 2h9c1.108 0 2-0.892 2-2v-7l-4-4h-7zm0 1h1v3c0 1.108 0.892 2 2 2h2c1.108 0 2-0.892 2-2v-2.5859l3 3v6.5859c0 0.554-0.446 1-1 1v-2c0-1.108-0.892-2-2-2h-5c-1.108 0-2 0.892-2 2v2c-0.554 0-1-0.446-1-1v-9c0-0.554 0.446-1 1-1zm2 0h2v4h-1c-0.554 0-1-0.446-1-1zm0 8h5c0.554 0 1 0.446 1 1v2h-7v-2c0-0.554 0.446-1 1-1z" style="fill:currentColor" class="ColorScheme-Text"/>
</svg>

<svg xmlns="http://www.w3.org/2000/svg" viewBox="0 0 16 16">
    <defs>
        <style id="current-color-scheme" type="text/css">
            .ColorScheme-Text{color:#050505;opacity:.7}
        </style>
    </defs>
    <path d="M4 1c-1.108 0-2 .892-2 2h1c0-.554.446-1 1-1h6.586L14 5.414V12c0 .554-.446 1-1 1 0 .347-.056.679-.139 1H13c1.108 0 2-.892 2-2V5l-4-4H5z" class="ColorScheme-Text" style="fill:currentColor"/>
    <path d="M2 3C.892 3 0 3.892 0 5v9c0 1.108.892 2 2 2h9c1.108 0 2-.892 2-2V7L9 3H2zm0 1h1v3c0 1.108.892 2 2 2h2c1.108 0 2-.892 2-2V4.414l3 3V14c0 .554-.446 1-1 1v-2c0-1.108-.892-2-2-2H4c-1.108 0-2 .892-2 2v2c-.554 0-1-.446-1-1V5c0-.554.446-1 1-1zm2 0h2v4H5c-.554 0-1-.446-1-1zm0 8h5c.554 0 1 .446 1 1v2H3v-2c0-.554.446-1 1-1z" class="ColorScheme-Text" style="fill:currentColor"/>
</svg>
